Origami/64x64/apps/QOwnNotes.svg

<svg width="64" height="64" version="1" xmlns="http://www.w3.org/2000/svg">
 <defs>
  <clipPath id="clipPath4483">
   <path d="m91.5 254c-0.831 0-1.5 0.669-1.5 1.5v25c0 0.831 0.669 1.5 1.5 1.5h16.5l10-10v-16.5c0-0.831-0.669-1.5-1.5-1.5z" style="fill:#fecd38"/>
  </clipPath>
 </defs>
 <path d="m4 39 20 20h33c1.662 0 3-1.338 3-3v2c0 1.662-1.338 3-3 3h-33l-20-20v-2z" style="opacity:.2"/>
 <path d="m56 4s4 0 4 4v48c0 4-4 4-4 4h-32l-20-20v-32c0-4 4-4 4-4z" style="fill:#303d75"/>
 <path transform="matrix(-2,0,0,2,240,-504)" d="m118 272h-8.5c-0.82843 0-1.5 0.67158-1.5 1.5v8.5z" clip-path="url(#clipPath4483)" style="opacity:.2"/>
 <path d="m4 40h17c1.656 0 3 1.344 3 3v17z" style="fill:#44559e"/>
 <path d="m4 40l1 1h16c1.656 0 3 1.344 3 3v-1c0-1.656-1.344-3-3-3h-17z" style="fill:#ffffff;opacity:.1"/>
 <path d="m32 16a10 10 0 0 0 -0.875 0.04297 9.3333346 9.3333346 0 0 0 -0.195312 0.02344 10 10 0 0 0 -8.929688 9.93359 10 10 0 0 0 0.0039 0.07422 7 7 0 0 0 -6.0039 6.92578 7 7 0 0 0 0.003906 0.171875 6.6666676 6.6666676 0 0 0 -0.003906 0.160156 6.6666676 6.6666676 0 0 0 6.667969 6.667969h0.332031 17a8.000001 8.000001 0 0 0 8 -8 8.000001 8.000001 0 0 0 -6.160156 -7.765625 10 10 0 0 0 -8.480469 -8.128906 9.3333346 9.3333346 0 0 0 -0.128906 -0.019531 10 10 0 0 0 -0.609375 -0.054688 9.3333346 9.3333346 0 0 0 -0.621094 -0.03125zm-0.01953 3.001953c0.130237 0.0029 0.260806 0.0087 0.390625 0.01953a3.0003 3.0003 0 0 0 0.07422 0.0039c0.137299 0.0081 0.273577 0.02094 0.410157 0.03711 0.0052 6.18e-4 0.0104 0.0013 0.01563 2e-3 6e-3 9.37e-4 0.01156 3e-3 0.01758 0.0039a3.0003 3.0003 0 0 0 0.0625 0.0098c3.013418 0.413721 5.394687 2.696241 5.935547 5.689453a3.0003 3.0003 0 0 0 2.263672 2.386719c2.26608 0.535371 3.842006 2.521419 3.849599 4.849541-0.00211 2.795048-2.204383 4.996094-5 4.996094h-17-0.332031c-2.059838 4.02e-4 -3.666279-1.604817-3.667969-3.664062v-0.0039c3.82e-4 -0.01697 0.0013-0.03382 2e-3 -0.05078a3.0003 3.0003 0 0 0 0 -0.214844c-7.56e-4 -0.02161-0.0015-0.04284-2e-3 -0.06445v-0.0039c0.0028-2.009048 1.442573-3.669153 3.431641-3.955078a3.0003 3.0003 0 0 0 2.568359 -3.041033v-0.0039c0.0052-3.596831 2.673366-6.564194 6.25-6.949219a3.0003 3.0003 0 0 0 0.06836 -0.0078c0.03637-0.0048 0.07293-0.0096 0.109375-0.01367 0.183564-0.01643 0.36845-0.0235 0.552735-0.02539z" style="opacity:.2"/>
 <path d="m32 15a10 10 0 0 0 -0.875 0.042969 9.3333346 9.3333346 0 0 0 -0.195312 0.023437 10 10 0 0 0 -8.929688 9.933594 10 10 0 0 0 0.003906 0.074219 7 7 0 0 0 -6.003906 6.925781 7 7 0 0 0 0.003906 0.171875 6.6666676 6.6666676 0 0 0 -0.003906 0.160156 6.6666676 6.6666676 0 0 0 6.667969 6.667969h0.332031 17a8.000001 8.000001 0 0 0 8 -8 8.000001 8.000001 0 0 0 -6.160156 -7.765625 10 10 0 0 0 -8.480469 -8.128906 9.3333346 9.3333346 0 0 0 -0.128906 -0.019531 10 10 0 0 0 -0.609375 -0.054688 9.3333346 9.3333346 0 0 0 -0.621094 -0.03125zm-0.019531 3.001953c0.130237 0.0029 0.260806 0.008701 0.390625 0.019531a3.0003 3.0003 0 0 0 0.074218 0.003907c0.137299 0.0081 0.273577 0.020939 0.410157 0.037109 0.0052 6.18e-4 0.010405 0.001253 0.015625 0.001953 6e-3 9.37e-4 0.011558 0.003006 0.017578 0.003906a3.0003 3.0003 0 0 0 0.0625 0.009766c3.013418 0.413721 5.394687 2.696241 5.935547 5.689453a3.0003 3.0003 0 0 0 2.263672 2.386719c2.26609 0.535439 3.842016 2.521487 3.849609 4.849609-0.00211 2.795048-2.204383 4.996094-5 4.996094h-17-0.332031c-2.059838 4.02e-4 -3.666279-1.604817-3.667969-3.664062v-0.003907c3.82e-4 -0.01697 0.001253-0.033821 0.001953-0.050781a3.0003 3.0003 0 0 0 0 -0.214844c-7.56e-4 -0.02161-0.001453-0.042843-0.001953-0.064453v-0.003906c0.0028-2.009048 1.442573-3.669153 3.431641-3.955078a3.0003 3.0003 0 0 0 2.568359 -3.041016v-0.003906c0.0052-3.596831 2.673366-6.564194 6.25-6.949219a3.0003 3.0003 0 0 0 0.068359 -0.007812c0.03637-0.0048 0.07293-0.009602 0.109375-0.013672 0.183564-0.01643 0.36845-0.023501 0.552735-0.025391z" style="fill:#5d8cb9"/>
 <path d="m8 4s-4 0-4 4v1c0-4 4-4 4-4h48s4 0 4 4v-1c0-4-4-4-4-4h-48z" style="fill:#ffffff;opacity:.1"/>
</svg>

<svg xmlns="http://www.w3.org/2000/svg" width="64" height="64" version="1">
 <defs>
  <clipPath id="clipPath4483" clipPathUnits="userSpaceOnUse">
   <path style="fill:#fecd38" d="m 91.5,254 c -0.831,0 -1.5,0.669 -1.5,1.5 l 0,25 c 0,0.831 0.669,1.5 1.5,1.5 l 16.5,0 10,-10 0,-16.5 c 0,-0.831 -0.669,-1.5 -1.5,-1.5 z"/>
  </clipPath>
 </defs>
 <path style="opacity:0.2" d="m 4,39 20,20 33,0 c 1.662,0 3,-1.338 3,-3 l 0,2 c 0,1.662 -1.338,3 -3,3 L 24,61 4,41 4,39 Z"/>
 <path style="fill:#303d75" d="m 56,4 c 0,0 4,0 4,4 l 0,48 c 0,4 -4,4 -4,4 L 24,60 4,40 4,8 C 4,4 8,4 8,4 Z"/>
 <path style="opacity:0.2" d="m 118,272 -8.5,0 c -0.82843,0 -1.5,0.67158 -1.5,1.5 l 0,8.5 z" clip-path="url(#clipPath4483)" transform="matrix(-2,0,0,2,240,-504)"/>
 <path style="fill:#44559e" d="m 4,40 17,0 c 1.656,0 3,1.344 3,3 l 0,17 z"/>
 <path style="opacity:0.1;fill:#ffffff" d="M 4 40 L 5 41 L 21 41 C 22.656 41 24 42.344 24 44 L 24 43 C 24 41.344 22.656 40 21 40 L 4 40 z"/>
 <path style="opacity:0.2" d="m 32,16 a 10,10 0 0 0 -0.875,0.04297 9.3333346,9.3333346 0 0 0 -0.195312,0.02344 A 10,10 0 0 0 22,26 a 10,10 0 0 0 0.0039,0.07422 A 7,7 0 0 0 16,33 7,7 0 0 0 16.003906,33.171875 6.6666676,6.6666676 0 0 0 16,33.332031 6.6666676,6.6666676 0 0 0 22.667969,40 L 23,40 40,40 A 8.000001,8.000001 0 0 0 48,32 8.000001,8.000001 0 0 0 41.839844,24.234375 10,10 0 0 0 33.359375,16.105469 9.3333346,9.3333346 0 0 0 33.230469,16.085938 10,10 0 0 0 32.621094,16.03125 9.3333346,9.3333346 0 0 0 32,16 Z m -0.01953,3.001953 c 0.130237,0.0029 0.260806,0.0087 0.390625,0.01953 a 3.0003,3.0003 0 0 0 0.07422,0.0039 c 0.137299,0.0081 0.273577,0.02094 0.410157,0.03711 0.0052,6.18e-4 0.0104,0.0013 0.01563,0.002 0.006,9.37e-4 0.01156,0.003 0.01758,0.0039 a 3.0003,3.0003 0 0 0 0.0625,0.0098 c 3.013418,0.413721 5.394687,2.696241 5.935547,5.689453 a 3.0003,3.0003 0 0 0 2.263672,2.386719 C 43.416481,27.689736 44.992407,29.675784 45,32.003906 44.99789,34.798954 42.795617,37 40,37 l -17,0 -0.332031,0 C 20.608131,37.000402 19.00169,35.395183 19,33.335938 l 0,-0.0039 c 3.82e-4,-0.01697 0.0013,-0.03382 0.002,-0.05078 a 3.0003,3.0003 0 0 0 0,-0.214844 c -7.56e-4,-0.02161 -0.0015,-0.04284 -0.002,-0.06445 l 0,-0.0039 c 0.0028,-2.009048 1.442573,-3.669153 3.431641,-3.955078 A 3.0003,3.0003 0 0 0 25,26.001953 l 0,-0.0039 c 0.0052,-3.596831 2.673366,-6.564194 6.25,-6.949219 a 3.0003,3.0003 0 0 0 0.06836,-0.0078 c 0.03637,-0.0048 0.07293,-0.0096 0.109375,-0.01367 0.183564,-0.01643 0.36845,-0.0235 0.552735,-0.02539 z"/>
 <path style="fill:#5d8cb9" d="M 32 15 A 10 10 0 0 0 31.125 15.042969 A 9.3333346 9.3333346 0 0 0 30.929688 15.066406 A 10 10 0 0 0 22 25 A 10 10 0 0 0 22.003906 25.074219 A 7 7 0 0 0 16 32 A 7 7 0 0 0 16.003906 32.171875 A 6.6666676 6.6666676 0 0 0 16 32.332031 A 6.6666676 6.6666676 0 0 0 22.667969 39 L 23 39 L 40 39 A 8.000001 8.000001 0 0 0 48 31 A 8.000001 8.000001 0 0 0 41.839844 23.234375 A 10 10 0 0 0 33.359375 15.105469 A 9.3333346 9.3333346 0 0 0 33.230469 15.085938 A 10 10 0 0 0 32.621094 15.03125 A 9.3333346 9.3333346 0 0 0 32 15 z M 31.980469 18.001953 C 32.110706 18.004853 32.241275 18.010654 32.371094 18.021484 A 3.0003 3.0003 0 0 0 32.445312 18.025391 C 32.582611 18.033491 32.718889 18.04633 32.855469 18.0625 C 32.860669 18.063118 32.865874 18.063753 32.871094 18.064453 C 32.877094 18.06539 32.882652 18.067459 32.888672 18.068359 A 3.0003 3.0003 0 0 0 32.951172 18.078125 C 35.96459 18.491846 38.345859 20.774366 38.886719 23.767578 A 3.0003 3.0003 0 0 0 41.150391 26.154297 C 43.416481 26.689736 44.992407 28.675784 45 31.003906 C 44.99789 33.798954 42.795617 36 40 36 L 23 36 L 22.667969 36 C 20.608131 36.000402 19.00169 34.395183 19 32.335938 L 19 32.332031 C 19.000382 32.315061 19.001253 32.29821 19.001953 32.28125 A 3.0003 3.0003 0 0 0 19.001953 32.066406 C 19.001197 32.044796 19.0005 32.023563 19 32.001953 L 19 31.998047 C 19.0028 29.988999 20.442573 28.328894 22.431641 28.042969 A 3.0003 3.0003 0 0 0 25 25.001953 L 25 24.998047 C 25.0052 21.401216 27.673366 18.433853 31.25 18.048828 A 3.0003 3.0003 0 0 0 31.318359 18.041016 C 31.354729 18.036216 31.391289 18.031414 31.427734 18.027344 C 31.611298 18.010914 31.796184 18.003843 31.980469 18.001953 z"/>
 <path style="opacity:0.1;fill:#ffffff" d="M 8 4 C 8 4 4 4 4 8 L 4 9 C 4 5 8 5 8 5 L 56 5 C 56 5 60 5 60 9 L 60 8 C 60 4 56 4 56 4 L 8 4 z"/>
</svg>
